src/pos-icons/scoreboard-outline.svg

<svg height="24" viewBox="0 0 24 24" width="24" xmlns="http://www.w3.org/2000/svg"><path d="m21 3h-18c-1.1 0-2 .9-2 2v14c0 1.1.9 2 2 2h18c1.1 0 2-.9 2-2v-14c0-1.1-.9-2-2-2m0 16h-18v-14h18m-16 2h4c.6 0 1 .4 1 1v8c0 .6-.4 1-1 1h-4c-.6 0-1-.4-1-1v-8c0-.6.4-1 1-1m1 2v6h2v-6m7-2h4c.6 0 1 .4 1 1v8c0 .6-.4 1-1 1h-4c-.6 0-1-.4-1-1v-8c0-.6.4-1 1-1m1 2v6h2v-6m-6 2c.6 0 1-.4 1-1s-.4-1-1-1-1 .4-1 1 .4 1 1 1m0 4c.6 0 1-.4 1-1s-.4-1-1-1-1 .4-1 1 .4 1 1 1z"/></svg>

<?xml version="1.0" encoding="UTF-8"?><!DOCTYPE svg PUBLIC "-//W3C//DTD SVG 1.1//EN" "http://www.w3.org/Graphics/SVG/1.1/DTD/svg11.dtd"><svg xmlns="http://www.w3.org/2000/svg" xmlns:xlink="http://www.w3.org/1999/xlink" version="1.1" id="mdi-scoreboard-outline" width="24" height="24" viewBox="0 0 24 24"><path d="M21 3H3C1.9 3 1 3.9 1 5V19C1 20.1 1.9 21 3 21H21C22.1 21 23 20.1 23 19V5C23 3.9 22.1 3 21 3M21 19H3V5H21M5 7H9C9.6 7 10 7.4 10 8V16C10 16.6 9.6 17 9 17H5C4.4 17 4 16.6 4 16V8C4 7.4 4.4 7 5 7M6 9V15H8V9M15 7H19C19.6 7 20 7.4 20 8V16C20 16.6 19.6 17 19 17H15C14.4 17 14 16.6 14 16V8C14 7.4 14.4 7 15 7M16 9V15H18V9M12 11C12.6 11 13 10.6 13 10C13 9.4 12.6 9 12 9C11.4 9 11 9.4 11 10C11 10.6 11.4 11 12 11M12 15C12.6 15 13 14.6 13 14C13 13.4 12.6 13 12 13C11.4 13 11 13.4 11 14C11 14.6 11.4 15 12 15Z" /></svg>
